public/logo-full.svg

<?xml version="1.0" encoding="UTF-8" standalone="no"?>
<svg
   xmlns:dc="http://purl.org/dc/elements/1.1/"
   xmlns:cc="http://creativecommons.org/ns#"
   xmlns:rdf="http://www.w3.org/1999/02/22-rdf-syntax-ns#"
   xmlns:svg="http://www.w3.org/2000/svg"
   xmlns="http://www.w3.org/2000/svg"
   xmlns:sodipodi="http://sodipodi.sourceforge.net/DTD/sodipodi-0.dtd"
   xmlns:inkscape="http://www.inkscape.org/namespaces/inkscape"
   width="250"
   height="50"
   viewBox="0 0 250 50"
   fill="none"
   version="1.1"
   id="svg29"
   sodipodi:docname="logo-full.svg"
   inkscape:version="1.0.2 (394de47547, 2021-03-26)">
  <metadata
     id="metadata33">
    <rdf:RDF>
      <cc:Work
         rdf:about="">
        <dc:format>image/svg+xml</dc:format>
        <dc:type
           rdf:resource="http://purl.org/dc/dcmitype/StillImage" />
      </cc:Work>
    </rdf:RDF>
  </metadata>
  <sodipodi:namedview
     pagecolor="#ffffff"
     bordercolor="#666666"
     borderopacity="1"
     objecttolerance="10"
     gridtolerance="10"
     guidetolerance="10"
     inkscape:pageopacity="0"
     inkscape:pageshadow="2"
     inkscape:window-width="1366"
     inkscape:window-height="731"
     id="namedview31"
     showgrid="false"
     inkscape:zoom="2.51"
     inkscape:cx="117.08949"
     inkscape:cy="25.261609"
     inkscape:window-x="0"
     inkscape:window-y="0"
     inkscape:window-maximized="1"
     inkscape:current-layer="svg29" />
  <path
     d="m 107.307,22.0488 -3.622,16.6334 h -9.4366 l 3.6223,-16.6334 c 0.2839,-1.3074 0.1193,-1.5484 -1.2178,-1.5484 h -3.4066 c -1.3286,0 -1.6068,0.241 -1.8878,1.5151 0,0 0,0.0222 0,0.0333 l -3.6223,16.6334 h -9.4448 l 3.6252,-16.6334 c 0.2839,-1.3074 0.1192,-1.5484 -1.2207,-1.5484 h -3.4066 c -1.3399,0 -1.6096,0.2437 -1.8934,1.5484 L 71.7707,38.6822 H 62.3345 L 67.8957,13.149 h 7.6648 l 1.215,2.1938 c 0.699,-0.7181 1.545,-1.2845 2.4831,-1.6625 0.9381,-0.378 1.9472,-0.559 2.9618,-0.5313 h 1.9559 c 3.6905,0 6.1801,1.565 7.0715,4.2103 1.6493,-2.9417 4.0396,-4.2103 6.9267,-4.2103 h 1.9585 c 5.544,0 8.363,3.4929 7.174,8.8998 z"
     fill="#5965e0"
     id="path2"
     style="fill:#0080ff;fill-opacity:1" />
  <path
     d="m 136.084,22.0487 -1.684,7.7337 c -1.178,5.4069 -5.521,8.8997 -11.071,8.8997 h -7.148 c -5.542,0 -8.361,-3.4956 -7.182,-8.9025 l 1.683,-7.7309 c 1.175,-5.4069 5.519,-8.8998 11.071,-8.8998 h 7.16 c 5.53,0 8.352,3.4929 7.171,8.8998 z m -9.445,0 c 0.284,-1.3074 0.119,-1.5484 -1.218,-1.5484 h -3.406 c -1.34,0 -1.61,0.2438 -1.894,1.5484 l -1.686,7.7309 c -0.284,1.3074 -0.117,1.5484 1.22,1.5484 h 3.407 c 1.337,0 1.61,-0.2438 1.894,-1.5484 z"
     fill="#5965e0"
     id="path4"
     style="fill:#0080ff;fill-opacity:1" />
  <path
     d="m 194.975,20.0156 c -0.345,1.4514 -1.179,2.7483 -2.368,3.684 l -4.806,3.8779 c -1.152,0.9455 -2.602,1.4773 -4.107,1.5068 h -6.655 l -0.15,0.6842 c -0.284,1.3074 -0.119,1.5484 1.221,1.5484 h 14.398 l -1.601,7.3541 h -16.283 c -5.542,0 -8.361,-3.4956 -7.183,-8.9025 l 1.684,-7.7309 c 1.178,-5.4069 5.521,-8.8998 11.071,-8.8998 h 7.165 c 5.528,0.0111 8.386,3.3212 7.614,6.8778 z m -9.885,2.0331 c 0.284,-1.3074 0.12,-1.5484 -1.22,-1.5484 h -3.407 c -1.334,-0.0028 -1.618,0.2437 -1.902,1.5484 l -0.568,2.6619 h 5.621 c 0.252,-0.0102 0.494,-0.1004 0.689,-0.2569 0.194,-0.1565 0.331,-0.3707 0.39,-0.6101 z"
     fill="#5965e0"
     id="path6"
     style="fill:#0080ff;fill-opacity:1" />
  <path
     d="m 205.583,34.3471 c -0.522,2.396 -2.461,4.3378 -5.393,4.3378 -2.933,0 -4.023,-1.939 -3.501,-4.3378 0.523,-2.3987 2.462,-4.3349 5.394,-4.3349 2.933,0 4.014,1.9362 3.5,4.3349 z"
     fill="#4cd62b"
     id="path8"
     style="fill:#33ff00;fill-opacity:1" />
  <path
     d="m 225.829,13.1489 -1.601,7.3486 -3.974,18.1819 h -9.434 l 3.975,-18.1819 h -4.71 l 1.604,-7.3514 z m -7.006,-4.76704 c -1.635,-1.77275 -1.136,-4.81414 1.11,-6.7891 2.245,-1.974957 5.394,-2.135613 7.037,-0.36009 1.644,1.77553 1.136,4.81691 -1.11,6.79187 -2.245,1.97496 -5.399,2.13566 -7.037,0.35732 z"
     fill="#5965e0"
     id="path10"
     style="fill:#0080ff;fill-opacity:1" />
  <path
     d="m 240.972,16.8246 -2.822,12.955 c -0.284,1.3074 -0.119,1.5484 1.218,1.5484 h 5.868 l -1.601,7.3541 h -7.747 c -5.542,0 -8.363,-3.4956 -7.185,-8.9025 l 2.821,-12.955 h -3.568 l 1.601,-7.35416 h 3.577 l 1.312,-6.02183 h 9.444 l -1.311,6.02183 h 7.426 l -1.61,7.35416 z"
     fill="#5965e0"
     id="path12"
     style="fill:#0080ff;fill-opacity:1" />
  <path
     d="M 25.5088,3.745 H 37.4829 L 27.5215,50 H 15.5474 Z"
     fill="#5965e0"
     id="path14"
     style="fill:#0080ff;fill-opacity:1" />
  <path
     d="M 43.0786,3.745 H 55.0527 L 47.2914,39.9868 H 35.3145 Z"
     fill="#5965e0"
     id="path16"
     style="fill:#0080ff;fill-opacity:1" />
  <path
     d="M 7.76366,3.745 H 19.7378 L 11.9765,39.9868 H -4.88281e-4 Z"
     fill="#5965e0"
     id="path18"
     style="fill:#0080ff;fill-opacity:1" />
  <path
     d="m 171.027,13.1489 -17.496,25.5332 h -9.652 l -6.381,-25.5332 h 10.336 l 2.779,16.7664 10.078,-16.7525 z"
     fill="#5965e0"
     id="path20"
     style="fill:#0080ff;fill-opacity:1" />
  <defs
     id="defs27">
    <clipPath
       id="clip0">
      <rect
         width="250"
         height="50"
         fill="white"
         id="rect24" />
    </clipPath>
  </defs>
</svg>

<svg width="250" height="50" viewBox="0 0 250 50" fill="none" xmlns="http://www.w3.org/2000/svg">
<g clip-path="url(#clip0)">
<path d="M107.307 22.0488L103.685 38.6822H94.2484L97.8707 22.0488C98.1546 20.7414 97.99 20.5004 96.6529 20.5004H93.2463C91.9177 20.5004 91.6395 20.7414 91.3585 22.0155C91.3585 22.0155 91.3585 22.0377 91.3585 22.0488L87.7362 38.6822H78.2914L81.9166 22.0488C82.2005 20.7414 82.0358 20.5004 80.6959 20.5004H77.2893C75.9494 20.5004 75.6797 20.7441 75.3959 22.0488L71.7707 38.6822H62.3345L67.8957 13.149H75.5605L76.7755 15.3428C77.4745 14.6247 78.3205 14.0583 79.2586 13.6803C80.1967 13.3023 81.2058 13.1213 82.2204 13.149H84.1763C87.8668 13.149 90.3564 14.714 91.2478 17.3593C92.8971 14.4176 95.2874 13.149 98.1745 13.149H100.133C105.677 13.149 108.496 16.6419 107.307 22.0488Z" fill="#5965E0"/>
<path d="M136.084 22.0487L134.4 29.7824C133.222 35.1893 128.879 38.6821 123.329 38.6821H116.181C110.639 38.6821 107.82 35.1865 108.999 29.7796L110.682 22.0487C111.857 16.6418 116.201 13.1489 121.753 13.1489H128.913C134.443 13.1489 137.265 16.6418 136.084 22.0487ZM126.639 22.0487C126.923 20.7413 126.758 20.5003 125.421 20.5003H122.015C120.675 20.5003 120.405 20.7441 120.121 22.0487L118.435 29.7796C118.151 31.087 118.318 31.328 119.655 31.328H123.062C124.399 31.328 124.672 31.0842 124.956 29.7796L126.639 22.0487Z" fill="#5965E0"/>
<path d="M194.975 20.0156C194.63 21.467 193.796 22.7639 192.607 23.6996L187.801 27.5775C186.649 28.523 185.199 29.0548 183.694 29.0843H177.039L176.889 29.7685C176.605 31.0759 176.77 31.3169 178.11 31.3169H192.508L190.907 38.671H174.624C169.082 38.671 166.263 35.1754 167.441 29.7685L169.125 22.0376C170.303 16.6307 174.646 13.1378 180.196 13.1378H187.361C192.889 13.1489 195.747 16.459 194.975 20.0156ZM185.09 22.0487C185.374 20.7413 185.21 20.5003 183.87 20.5003H180.463C179.129 20.4975 178.845 20.744 178.561 22.0487L177.993 24.7106H183.614C183.866 24.7004 184.108 24.6102 184.303 24.4537C184.497 24.2972 184.634 24.083 184.693 23.8436L185.09 22.0487Z" fill="#5965E0"/>
<path d="M205.583 34.3471C205.061 36.7431 203.122 38.6849 200.19 38.6849C197.257 38.6849 196.167 36.7459 196.689 34.3471C197.212 31.9484 199.151 30.0122 202.083 30.0122C205.016 30.0122 206.097 31.9484 205.583 34.3471Z" fill="#4CD62B"/>
<path d="M225.829 13.1489L224.228 20.4975L220.254 38.6794H210.82L214.795 20.4975H210.085L211.689 13.1461L225.829 13.1489ZM218.823 8.38186C217.188 6.60911 217.687 3.56772 219.933 1.59276C222.178 -0.382197 225.327 -0.542853 226.97 1.23267C228.614 3.0082 228.106 6.04958 225.86 8.02454C223.615 9.9995 220.461 10.1602 218.823 8.38186Z" fill="#5965E0"/>
<path d="M240.972 16.8246L238.15 29.7796C237.866 31.087 238.031 31.328 239.368 31.328H245.236L243.635 38.6821H235.888C230.346 38.6821 227.525 35.1865 228.703 29.7796L231.524 16.8246H227.956L229.557 9.47044H233.134L234.446 3.44861H243.89L242.579 9.47044H250.005L248.395 16.8246H240.972Z" fill="#5965E0"/>
<path d="M25.5088 3.745H37.4829L27.5215 50H15.5474L25.5088 3.745Z" fill="#5965E0"/>
<path d="M43.0786 3.745H55.0527L47.2914 39.9868H35.3145L43.0786 3.745Z" fill="#5965E0"/>
<path d="M7.76366 3.745H19.7378L11.9765 39.9868H-0.000488281L7.76366 3.745Z" fill="#5965E0"/>
<path d="M171.027 13.1489L153.531 38.6821H143.879L137.498 13.1489H147.834L150.613 29.9153L160.691 13.1628L171.027 13.1489Z" fill="#5965E0"/>
</g>
<defs>
<clipPath id="clip0">
<rect width="250" height="50" fill="white"/>
</clipPath>
</defs>
</svg>
